X: 259
T: Bawnard Slide
C: BB 12/07
N: 022248
L: 1/8
M: 12/8
R: slide
Q: 1/4=200
K: D
D | "Bm" F2B BAB d2B BAB | "G"g2A "D"f2A "A"efe cBA |
"Bm" F2B BAB d2B BAG | "D" F2A "A"G2E "D"D3-D2 :|
D | "D" FEF d2F "G"GFG d2D | "D" FEF d2f "A" efe cBA |
"D" FEF d2F "G"GFG d2e | "D"fed "A7"c2e "D"d3-d2 :|
%%%%%%%%%%%%%%%%%%%%%%%%%%%%
